svg/600/sharp/splitscreen_vertical_add.svg

<svg xmlns="http://www.w3.org/2000/svg" width="48" height="48" viewBox="0 -960 960 960"><path d="M774.913-774.913h.565H631.87h3.577-32.142 171.608Zm-250.826-79.783h330.609v526.566h-79.783v-446.783H603.305v669.044h-79.218v-748.827ZM105.869-105.869v-748.827h329.61v748.827h-329.61ZM356.26-774.913H185.087v589.826H356.26v-589.826Zm0 0H185.087 356.26ZM783.391-26.999v-78.87h-78.869v-70.74h78.869v-78.869h71.305v78.869h78.305v70.74h-78.305v78.87h-71.305Z"/></svg>

<svg xmlns="http://www.w3.org/2000/svg" width="48" height="48" viewBox="0 -960 960 960"><path d="M774.91-774.91h.57-143.61 3.58-32.15 171.61ZM524.09-854.7H854.7v526.57h-79.79v-446.78H603.3v669.04h-79.21V-854.7ZM105.87-105.87V-854.7h329.61v748.83H105.87Zm250.39-669.04H185.09v589.82h171.17v-589.82Zm0 0H185.09h171.17ZM783.39-27v-78.87h-78.87v-70.74h78.87v-78.87h71.31v78.87H933v70.74h-78.3V-27h-71.31Z"/></svg>
